dist/svgs/crypto-icons/icons/btg.svg

<?xml version="1.0" encoding="UTF-8" standalone="yes"?>
<svg xmlns="http://www.w3.org/2000/svg" xmlns:xlink="http://www.w3.org/1999/xlink" width="512px" height="512px" viewBox="0 0 384 384" version="1.1">
  <g id="surface1">
    <path style=" stroke:none;fill-rule:nonzero;fill:rgb(0%,0%,0%);fill-opacity:1;" d="M 192 384 C 85.957031 384 0 298.042969 0 192 C 0 85.957031 85.957031 0 192 0 C 298.042969 0 384 85.957031 384 192 C 384 298.042969 298.042969 384 192 384 Z M 192 324 C 264.902344 324 324 264.902344 324 192 C 324 119.097656 264.902344 60 192 60 C 119.097656 60 60 119.097656 60 192 C 60 264.902344 119.097656 324 192 324 Z M 180.144531 80.878906 C 185.386719 80.527344 190.636719 80.269531 195.886719 80.097656 C 195.945312 90.863281 195.921875 101.640625 195.886719 112.402344 L 180.167969 112.378906 C 180.167969 101.882812 180.167969 91.378906 180.144531 80.878906 Z M 217.96875 112.882812 L 217.980469 112.882812 C 217.957031 102.984375 217.957031 93.085938 218.027344 83.199219 C 247.1875 90.503906 273.15625 109.5625 288.429688 135.492188 C 305.722656 164.257812 308.625 200.988281 296.378906 232.210938 C 283.464844 266.054688 253.113281 292.210938 217.957031 300.792969 C 217.980469 290.949219 218.003906 281.136719 217.933594 271.308594 C 234.636719 269.722656 252.933594 268.257812 266.449219 257.148438 C 280.09375 245.195312 283.246094 224.855469 279.289062 207.890625 C 276.242188 194.9375 264.035156 186.734375 251.710938 183.863281 C 272.304688 172.945312 274.464844 141.265625 257.648438 126.179688 C 246.636719 116.855469 231.792969 114.746094 217.96875 112.882812 Z M 113.015625 112.464844 C 126.429688 100.679688 141.625 90.753906 158.6875 85.222656 C 158.773438 94.488281 158.746094 103.75 158.746094 113.015625 C 143.496094 113.039062 128.246094 113.195312 113.027344 112.464844 Z M 95.230469 136.34375 C 99.671875 128.027344 106.65625 121.4375 111.046875 113.113281 C 111.839844 114.128906 112.128906 115.367188 111.902344 116.808594 C 112.007812 123.132812 112.105469 129.445312 113.015625 135.695312 C 120.78125 135.742188 128.664062 135.144531 136.355469 136.667969 C 141.011719 137.554688 143.820312 142.394531 143.546875 146.867188 C 143.796875 174.632812 143.472656 202.414062 143.699219 230.183594 C 143.460938 235.042969 144.671875 240.914062 140.449219 244.464844 C 133.210938 246.898438 125.398438 245.589844 117.910156 245.75 C 115.007812 253.753906 113.003906 262.09375 112.835938 270.589844 C 128.097656 271.429688 143.4375 270.863281 158.738281 271.019531 C 158.738281 280.261719 158.761719 289.523438 158.703125 298.765625 C 128.738281 289.128906 103.140625 266.757812 90.238281 238.007812 C 75.300781 205.929688 77.316406 166.835938 95.230469 136.332031 Z M 180.792969 137.554688 C 194.085938 137.9375 208.703125 135.925781 220.679688 143.027344 C 230.941406 148.859375 231.578125 165.335938 221.640625 171.828125 C 209.664062 179.773438 194.484375 178.246094 180.804688 178.5 L 180.804688 137.554688 Z M 180.792969 200.53125 L 180.804688 200.53125 C 197.148438 200.972656 215.039062 198.179688 229.765625 206.976562 C 240.601562 213.011719 241.859375 230.253906 231.347656 237.242188 C 216.648438 247.429688 197.6875 244.585938 180.804688 245.953125 L 180.804688 200.523438 Z M 180.179688 271.628906 L 196.5625 271.628906 C 196.5625 282.382812 196.585938 293.132812 196.535156 303.886719 C 191.0625 303.742188 185.585938 303.5 180.121094 303.15625 C 180.15625 292.644531 180.179688 282.128906 180.179688 271.632812 Z M 180.179688 271.628906 "/>
  </g>
</svg>

<svg xmlns="http://www.w3.org/2000/svg" viewBox="0 0 384 384"><path d="M192 384C85.957 384 0 298.043 0 192S85.957 0 192 0s192 85.957 192 192-85.957 192-192 192zm0-60c72.902 0 132-59.098 132-132S264.902 60 192 60 60 119.098 60 192s59.098 132 132 132zM180.145 80.879a457.09 457.09 0 0115.742-.781c.058 10.765.035 21.543 0 32.304l-15.719-.023c0-10.496 0-21-.023-31.5zm37.824 32.004h.011c-.023-9.899-.023-19.797.047-29.684 29.16 7.305 55.13 26.364 70.403 52.293 17.293 28.766 20.195 65.496 7.949 96.719-12.914 33.844-43.266 60-78.422 68.582.023-9.844.047-19.656-.023-29.484 16.703-1.586 35-3.051 48.515-14.16 13.645-11.954 16.797-32.294 12.84-49.258-3.047-12.953-15.254-21.157-27.578-24.028 20.594-10.918 22.754-42.597 5.937-57.683-11.011-9.325-25.855-11.434-39.68-13.297zm-104.953-.418c13.414-11.785 28.609-21.711 45.671-27.242.086 9.265.06 18.527.06 27.793-15.25.023-30.5.18-45.72-.551zM95.23 136.344c4.442-8.317 11.426-14.906 15.817-23.23.793 1.015 1.082 2.253.855 3.695.106 6.324.203 12.636 1.114 18.886 7.765.047 15.648-.55 23.34.973 4.656.887 7.464 5.727 7.19 10.2.25 27.765-.073 55.546.153 83.316-.238 4.859.973 10.73-3.25 14.28-7.238 2.434-15.05 1.126-22.539 1.286-2.902 8.004-4.906 16.344-5.074 24.84 15.262.84 30.602.273 45.902.43 0 9.242.024 18.503-.035 27.746-29.965-9.637-55.562-32.008-68.465-60.758-14.937-32.078-12.922-71.172 4.992-101.676zm85.563 1.21c13.293.383 27.91-1.628 39.887 5.473 10.261 5.832 10.898 22.309.96 28.801-11.976 7.945-27.156 6.418-40.835 6.672v-40.945zm0 62.977h.012c16.343.442 34.234-2.351 48.96 6.446 10.837 6.035 12.094 23.277 1.583 30.265-14.7 10.188-33.66 7.344-50.543 8.711v-45.43zm-.613 71.098h16.382c0 10.754.024 21.504-.027 32.258a451.386 451.386 0 01-16.414-.73c.035-10.512.059-21.028.059-31.524zm0 0"/></svg>
